X:370
T:Alabama Rick's
R:jig
Z:Transcribed by Dave Marshall
M:6/8
K:A
|: AFE FAd | cAA ~A3 | Ace ~f3 | ecA B2c |
AFE FAd | cAA ~A3 | Ace ~f3 |1 ecA  A2c :|2 ecA A2f
|:  =ged ~B3 | de=g ef^g | aec ~A3 | cea e2f |
=ged ~B3 | de=g ef^g | aec ~f3 |1 ecA A2f :|2 ecA Afg
|: aec efe | .de.c efe | .ce.B efe | .ce.B efg |
aec efe | .de.c efg | aec ~f3 |1 ecA Afg :|2 ecA A3 |
